X:1
T:Margot, labourez les vignes
T:Jean de Castro
T:Source : La fleur des chansons à 3---Louvain---P.Phalèse---1574. Editor : André Vierendeels (09/09/18) Notes : Original clefs : G2, C1, C3 Original note values have been halved Editorial accidentals above the staff
T:Margot, labourez les vignes 
T:©
T:©
T:©
T:©
T:©
C:Jean de Castro
Z:©
%%score [ 1 2 3 ]
L:1/8
Q:1/4=96
M:2/2
K:C
V:1 treble nm="Soprano 1" snm="S 1"
V:2 treble nm="Soprano 2" snm="S 2"
V:3 treble-8 nm="Tenor" snm="T"
V:1
 G2 d2 ffed | ^c2 d2 z ABB/d/ | cBAG A2 Bd- | dddd defd- | dde>d cBAG | A2 G d2 ddg | edcB A2 G2 | %7
w: Mar- got la- bou- rez les|vi- gnes, Mar- got la- bou-|rez les vi- gnes bien- tost, vi-|* gnes vi- gnes vi- gno- let, Mar|_ got la- bou- rez les vi- gnes|bien- tost, en re- ve- nant|de Lou- rai- ne, Mar- got,|
 z d2 f edcB | AG c2 Bd g2 | z e g2 z d e2 | z c d2 Ggfe | d2 ee dc d2 | ecBA B2 c2 | G3 G Gc B2 | %14
w: en re- ve- nant de Lou-|rai- ne Mar- got, ren- con,|ren- con, ren- con,|ren- con- tray trois Ca- pi-|tai- nes, trois Ca- pi- tai-|nes, trois Ca- pi- tai- nes,|vi- gnes vi- gno- let|
 z ABB/d/ cBAG | A2 B2 z4 | z d2 d e2 d2 | ccBB A2 B2 | z g2 g eecc | f2 d g2 gee | cc f2 d d2 d | %21
w: Mar- got la- bou- rez les vi- gnes|bien- tost,|ils m'ont sa- lu-|é vil- lai- ne Mar- got,|ie suis leur fi- è- vres|quar- tai- nes, leur fi- è-|vres quar- tai- nes, vi- gnes|
 d3 d defd- | dde>d cBAG | A2 B2 d2 d2 | e>dcB AG A2 | B8 |] %26
w: vi- gnes vi- gno- let, Mar-|* got la- bou- rez les vi- gnes|bien- tost, Mar- got|la- bou- rez les vi- gnes bien-|tost.|
V:2
 G2 G2 FDG>F | E2 D G2 ^FG>G | ED^F G2 FGB- | BABA Bc A2 | BBc>B AGEG | ^F2 G2 z G2 G | %6
w: Mar- got la- bou- rez les|vi- gnes, Mar- got la- bou-|rez les vi- nes bien- tost, vi-|* gnes vi- gnes vi- gno- let,|Mar- got la- bou- rez les vi- nes|bien- tost, en re-|
 cBAG FD E2 | D A2 d BAGF | EG A2 D2 z B | c2 z A B2 z G | A3 ^F z GAc | B2 cc BA B2 | %12
w: ve- nant de Lou- rai- ne Mar-|got, en re- ve- nant de Lou-|rai- ne, Mar- got, ren-|con, ren- con, ren-|con- tray trois Ca- pi-|tai- nes, trois Ca- pi- tai-|
 cGGC D2 EE- | EDED E>EDG- | G^FG>G EDFG- | G^F G2 z B2 B | A2 B2 c2 B2 | G2 G2 F2 G2 | %18
w: nes, trois Ca- pi- tai- nes, vi-|* gnes vi- gnes vi- gno- let, Mar-|* got la- bou- rez les vi- gnes|_ bien- tost, ils m'ont|sa- lu- é vil-|lai- ne Mar- got,|
 B2 GG ccAA | d2 B2 GGcc | A2 dd B2 G2 | BABA Bc A2 | BBc>B AFEG | ^F2 G2 B2 B2 | c>BAG EG ^F2 | %25
w: ie suis leur fi- è- vres quar-|tai- nes, ie suis leur fi-|è- vres quar- tai- nes,|vi- gnes vi- gnes vi- gno- let|Mar- got la- bou- rez les vi- gnes|bien- tost, Mar- got|la- bou- rez les vi- gnes bien-|
 G8 |] %26
w: tost.|
V:3
 z8 | z2 G2 d2 G>G | cGde d2 G2 | gdg^f gc d2 | GGc>G ABce | d2 G2 z4 | z8 | d3 d gfed | cB A2 G4 | %9
w: |Mar- got la- bou-|rez les vi- gnes bien- tost,|vi- gnes vi- gnes vi- gno- let,|Mar- got la- bou- rez les vi- gnes|bien- tost,||en re- ve- nant de Lou-|rai- ne, Mar- got|
 z c e2 z g c2 | z f d2 c2 z2 | z2 z c ga g2 | ccGA G2 cc- | cGcG ccGG | d2 G>G cGde | d2 G2 g3 g | %16
w: ren- con, ren- con,|re- con tray|trois Ca- pi- tai-|nes, trois Ca- pi- tai- nes, vi-|* gnes vi- gnes vi- gno- let, Mar-|got la- bou- rez les vi- gnes|bien- tost, ils m'ont|
 ^f2 g2 c2 g2 | c2 G2 A2 G2 | ggee ccff | d2 gg eecc | ff d2 z4 | gdg^f gc d2 | GGc>G ABce | %23
w: sa- lu- é vil-|lai- ne Mar- got,|ie suis leur fi- è- vres quar- tai-|nes ie suis leur fi- è- vres|quar- tai- nes,|vi- gnes vi- gnes vi- gno- let|Mar- got la- bou- rez les vi- gnes|
 d2 G2 G2 G2 | c>GAB cG d2 | G8 |] %26
w: bien- tost, Mar- got|la- bou- rez les vi- gnes bien-|tost.|

